X: 14134
T: Frieze Breeches, The
R: jig
M: 6/8
K: Dmixolydian
FED EFG|AdB cAG|AGA BAG|FAF GFD|
FED EFG|AdB cAG|FAF GDC|DED ~D3:|
Ade fed|edd cAG|AGA BAG|FAF GED|
ABe fed|edd cAG|FAF GDC|DED ~D3:|
~D3 cAd|cAd cAF|~D3 dcd|fed cAF|
~D3 cAd|cAd cAG|FAF GEC|DED ~D3:|[
K: D
d2 e fdd|add fed|c2 d eAA|fAA gfe|
d2 e fdd|add fdd|faf gec|dfe d3:|
K: Dmix
f3 e3|ded cAG|AGA BAG|FAF GED|
fdf ece|ded cAG|FAF GDC|DED ~D3:|

